!!! OTL: Berkowitz102
!!! Chapter: 1
!!! Section: I
!!! Page: 25
!!! Mode: 
!!! Encoder: DJB
**kern
*staff1
*I"Piano
=1-
*clefF4
*k[f#c#g#]
*f#:
*M2/4
8F#\L
8F#\J
8F#\L
8C#\J
=2
8A\L
8A\J
8A\L
8G#\J
=3
8c#\L
8c#\J
16B\LL
16A\
16G#\
16A\JJ
=4
4G#\
8r
8C#/
=5
8C#\L
8F#\J
8F#\L
8C#\J
=6
8C#\L
8A\J
8A\L
8F#\J
=7
8c#\L
8c#\J
16B\LL
16A\
16G#\
16A\JJ
=8
4F#\
8r
8c#\
=9
!!linebreak:original
8d\L
8d\J
16c#\LL
16d\
16e\
16d\JJ
=10
8c#\L
8B\J
8A\L
8c#\J
=11
8B\L
8B\J
16A\LL
16B\
16c#\
16B\JJ
=12
8A\L
8G#\J
8F#\L
8C#\J
=13
8C#\L
8F#\J
8F#\L
8C#\J
=14
8C#\L
8A\J
8A\L
8F#\J
=15
8c#\L
8c#\J
16B\LL
16A\
16G#\
16A\JJ
=16
4F#\
4r
==
*-
